mobile/24/svg/bookmark-fill-24.svg

<svg width="24" height="24" viewBox="0 0 24 24" fill="none" xmlns="http://www.w3.org/2000/svg">
<path d="M6.84001 21.5C6.51801 21.5 6.19801 21.399 5.92401 21.2C5.40401 20.822 5.17101 20.176 5.33001 19.553L6.59301 14.594L2.65501 11.324C2.16101 10.913 1.97001 10.254 2.16801 9.643C2.36701 9.032 2.90901 8.61 3.55001 8.568L8.65801 8.237L10.551 3.482C10.788 2.886 11.357 2.5 12 2.5C12.643 2.5 13.211 2.886 13.449 3.483L15.342 8.238L20.449 8.569C21.091 8.611 21.634 9.033 21.832 9.645C22.031 10.256 21.838 10.916 21.343 11.326L17.407 14.595L18.67 19.555C18.828 20.178 18.596 20.824 18.075 21.202C17.556 21.579 16.87 21.602 16.325 21.259L12 18.522L7.67401 21.257C7.41601 21.419 7.12801 21.5 6.84001 21.5Z" fill="black"/>
</svg>

<svg width="24" height="24" fill="none" xmlns="http://www.w3.org/2000/svg"><path d="M6.84 21.5c-.322 0-.642-.101-.916-.3a1.55 1.55 0 0 1-.594-1.647l1.263-4.959-3.938-3.27a1.552 1.552 0 0 1-.487-1.681A1.553 1.553 0 0 1 3.55 8.568l5.108-.331 1.893-4.755A1.551 1.551 0 0 1 12 2.5c.643 0 1.211.386 1.449.983l1.893 4.755 5.107.331a1.552 1.552 0 0 1 1.383 1.076 1.55 1.55 0 0 1-.489 1.681l-3.936 3.269 1.263 4.96a1.551 1.551 0 0 1-.595 1.647c-.519.377-1.205.4-1.75.057L12 18.522l-4.326 2.735a1.565 1.565 0 0 1-.834.243z" fill="#000"/></svg>
